assets/images/google.svg

<svg width="25" height="24" viewBox="0 0 25 24" fill="none" xmlns="http://www.w3.org/2000/svg">
<path d="M5.56891 14.5035L4.7335 17.6222L1.68011 17.6868C0.767594 15.9943 0.25 14.0578 0.25 12C0.25 10.0101 0.733938 8.13361 1.59175 6.48131H1.59241L4.31078 6.97968L5.50159 9.68175C5.25236 10.4084 5.11652 11.1884 5.11652 12C5.11661 12.8809 5.27617 13.7249 5.56891 14.5035Z" fill="#FBBB00"/>
<path d="M24.0403 9.75826C24.1781 10.4842 24.25 11.2338 24.25 12C24.25 12.8591 24.1597 13.6972 23.9876 14.5055C23.4034 17.2563 21.877 19.6583 19.7625 21.358L19.7619 21.3574L16.3379 21.1827L15.8534 18.1576C17.2564 17.3348 18.3529 16.0471 18.9305 14.5055H12.5138V9.75826H24.0403Z" fill="#518EF8"/>
<path d="M19.7619 21.3574L19.7625 21.358C17.7061 23.011 15.0937 24 12.25 24C7.68011 24 3.70694 21.4457 1.68011 17.6868L5.56891 14.5035C6.5823 17.2081 9.19132 19.1334 12.25 19.1334C13.5647 19.1334 14.7964 18.778 15.8533 18.1576L19.7619 21.3574Z" fill="#28B446"/>
<path d="M19.9095 2.76262L16.0221 5.94525C14.9282 5.26153 13.6352 4.86656 12.25 4.86656C9.12206 4.86656 6.46425 6.88017 5.50163 9.68175L1.59239 6.48131H1.59174C3.58889 2.63077 7.61217 0 12.25 0C15.1616 0 17.8313 1.03716 19.9095 2.76262Z" fill="#F14336"/>
</svg>

<svg width="25" height="24" fill="none" xmlns="http://www.w3.org/2000/svg"><path d="m5.569 14.504-.835 3.118-3.054.065A11.946 11.946 0 0 1 .25 12c0-1.99.484-3.866 1.342-5.519l2.719.499L5.5 9.682A7.134 7.134 0 0 0 5.118 12c0 .88.16 1.725.452 2.504Z" fill="#FBBB00"/><path d="M24.04 9.758a12.02 12.02 0 0 1-.053 4.747 11.997 11.997 0 0 1-4.224 6.853h-.001l-3.424-.175-.485-3.025a7.152 7.152 0 0 0 3.077-3.653h-6.416V9.758H24.04Z" fill="#518EF8"/><path d="M19.762 21.357v.001A11.949 11.949 0 0 1 12.25 24c-4.57 0-8.543-2.554-10.57-6.313l3.889-3.184a7.135 7.135 0 0 0 10.284 3.655l3.909 3.2Z" fill="#28B446"/><path d="m19.91 2.763-3.888 3.182a7.137 7.137 0 0 0-10.52 3.736l-3.91-3.2A11.998 11.998 0 0 1 12.25 0a11.95 11.95 0 0 1 7.66 2.763Z" fill="#F14336"/></svg>
